resources/svg/emotion-normal-fill.svg

<svg fill="currentColor" viewBox="0 0 24 24" xmlns="http://www.w3.org/2000/svg"><path d="M12 22C6.47715 22 2 17.5228 2 12C2 6.47715 6.47715 2 12 2C17.5228 2 22 6.47715 22 12C22 17.5228 17.5228 22 12 22ZM8 14V16H16V14H8ZM8 11C8.82843 11 9.5 10.3284 9.5 9.5C9.5 8.67157 8.82843 8 8 8C7.17157 8 6.5 8.67157 6.5 9.5C6.5 10.3284 7.17157 11 8 11ZM16 11C16.8284 11 17.5 10.3284 17.5 9.5C17.5 8.67157 16.8284 8 16 8C15.1716 8 14.5 8.67157 14.5 9.5C14.5 10.3284 15.1716 11 16 11Z"/></svg>

<svg xmlns="http://www.w3.org/2000/svg" viewBox="0 0 24 24" fill="currentColor">
    <g>
        <path fill="none" d="M0 0h24v24H0z"/>
        <path d="M12 22C6.477 22 2 17.523 2 12S6.477 2 12 2s10 4.477 10 10-4.477 10-10 10zm-4-8v2h8v-2H8zm0-3a1.5 1.5 0 1 0 0-3 1.5 1.5 0 0 0 0 3zm8 0a1.5 1.5 0 1 0 0-3 1.5 1.5 0 0 0 0 3z"/>
    </g>
</svg>
